static/img/kroki/3b2b2e8530f3197e5d863555ca8f376f.svg

<?xml version="1.0" encoding="us-ascii" standalone="no"?><svg xmlns="http://www.w3.org/2000/svg" xmlns:xlink="http://www.w3.org/1999/xlink" contentStyleType="text/css" height="573px" preserveAspectRatio="none" style="width:798px;height:573px;" version="1.1" viewBox="0 0 798 573" width="798px" zoomAndPan="magnify"><defs/><g><!--class ai_model--><g id="elem_ai_model"><rect codeLine="23" fill="#3D176E" height="39.7891" id="ai_model" rx="2.5" ry="2.5" style="stroke:#000D19;stroke-width:0.5;" width="118" x="485.5" y="367.37"/><ellipse cx="500.5" cy="387.2645" fill="#ADD1B2" rx="11" ry="11" style="stroke:#181818;stroke-width:1.0;"/><path d="M503.4688,392.9052 Q502.8906,393.202 502.25,393.3427 Q501.6094,393.4989 500.9063,393.4989 Q498.4063,393.4989 497.0781,391.8583 Q495.7656,390.202 495.7656,387.077 Q495.7656,383.952 497.0781,382.2958 Q498.4063,380.6395 500.9063,380.6395 Q501.6094,380.6395 502.25,380.7958 Q502.9063,380.952 503.4688,381.2489 L503.4688,383.9677 Q502.8438,383.3895 502.25,383.1239 Q501.6563,382.8427 501.0313,382.8427 Q499.6875,382.8427 499,383.9208 Q498.3125,384.9833 498.3125,387.077 Q498.3125,389.1708 499,390.2489 Q499.6875,391.3114 501.0313,391.3114 Q501.6563,391.3114 502.25,391.0458 Q502.8438,390.7645 503.4688,390.1864 L503.4688,392.9052 Z " fill="#000000"/><text fill="#D9B8FF" font-family="Helvetica" font-size="17" lengthAdjust="spacing" textLength="76" x="519.5" y="393.1498">ai_model</text></g><!--class ai_resource--><g id="elem_ai_resource"><rect codeLine="26" fill="#3D176E" height="39.7891" id="ai_resource" rx="2.5" ry="2.5" style="stroke:#000D19;stroke-width:0.5;" width="137" x="473" y="167.79"/><ellipse cx="488" cy="187.6845" fill="#ADD1B2" rx="11" ry="11" style="stroke:#181818;stroke-width:1.0;"/><path d="M490.9688,193.3252 Q490.3906,193.622 489.75,193.7627 Q489.1094,193.9189 488.4063,193.9189 Q485.9063,193.9189 484.5781,192.2783 Q483.2656,190.622 483.2656,187.497 Q483.2656,184.372 484.5781,182.7158 Q485.9063,181.0595 488.4063,181.0595 Q489.1094,181.0595 489.75,181.2158 Q490.4063,181.372 490.9688,181.6689 L490.9688,184.3877 Q490.3438,183.8095 489.75,183.5439 Q489.1563,183.2627 488.5313,183.2627 Q487.1875,183.2627 486.5,184.3408 Q485.8125,185.4033 485.8125,187.497 Q485.8125,189.5908 486.5,190.6689 Q487.1875,191.7314 488.5313,191.7314 Q489.1563,191.7314 489.75,191.4658 Q490.3438,191.1845 490.9688,190.6064 L490.9688,193.3252 Z " fill="#000000"/><text fill="#D9B8FF" font-family="Helvetica" font-size="17" lengthAdjust="spacing" textLength="95" x="507" y="193.5698">ai_resource</text></g><!--class azure_machine_learning_model_container_base--><g id="elem_azure_machine_learning_model_container_base"><rect codeLine="29" fill="#3D176E" height="39.7891" id="azure_machine_learning_model_container_base" rx="2.5" ry="2.5" style="stroke:#000D19;stroke-width:0.5;" width="443" x="7" y="367.37"/><ellipse cx="22" cy="387.2645" fill="#ADD1B2" rx="11" ry="11" style="stroke:#181818;stroke-width:1.0;"/><path d="M24.9688,392.9052 Q24.3906,393.202 23.75,393.3427 Q23.1094,393.4989 22.4063,393.4989 Q19.9063,393.4989 18.5781,391.8583 Q17.2656,390.202 17.2656,387.077 Q17.2656,383.952 18.5781,382.2958 Q19.9063,380.6395 22.4063,380.6395 Q23.1094,380.6395 23.75,380.7958 Q24.4063,380.952 24.9688,381.2489 L24.9688,383.9677 Q24.3438,383.3895 23.75,383.1239 Q23.1563,382.8427 22.5313,382.8427 Q21.1875,382.8427 20.5,383.9208 Q19.8125,384.9833 19.8125,387.077 Q19.8125,389.1708 20.5,390.2489 Q21.1875,391.3114 22.5313,391.3114 Q23.1563,391.3114 23.75,391.0458 Q24.3438,390.7645 24.9688,390.1864 L24.9688,392.9052 Z " fill="#000000"/><text fill="#D9B8FF" font-family="Helvetica" font-size="17" lengthAdjust="spacing" textLength="401" x="41" y="393.1498">azure_machine_learning_model_container_base</text></g><!--class azure_machine_learning_workspace_model_container--><g id="elem_azure_machine_learning_workspace_model_container"><rect codeLine="32" fill="#3D176E" height="39.7891" id="azure_machine_learning_workspace_model_container" rx="2.5" ry="2.5" style="stroke:#000D19;stroke-width:0.5;" width="493" x="298" y="528.16"/><ellipse cx="313" cy="548.0545" fill="#ADD1B2" rx="11" ry="11" style="stroke:#181818;stroke-width:1.0;"/><path d="M315.9688,553.6952 Q315.3906,553.992 314.75,554.1327 Q314.1094,554.2889 313.4063,554.2889 Q310.9063,554.2889 309.5781,552.6483 Q308.2656,550.992 308.2656,547.867 Q308.2656,544.742 309.5781,543.0858 Q310.9063,541.4295 313.4063,541.4295 Q314.1094,541.4295 314.75,541.5858 Q315.4063,541.742 315.9688,542.0389 L315.9688,544.7577 Q315.3438,544.1795 314.75,543.9139 Q314.1563,543.6327 313.5313,543.6327 Q312.1875,543.6327 311.5,544.7108 Q310.8125,545.7733 310.8125,547.867 Q310.8125,549.9608 311.5,551.0389 Q312.1875,552.1014 313.5313,552.1014 Q314.1563,552.1014 314.75,551.8358 Q315.3438,551.5545 315.9688,550.9764 L315.9688,553.6952 Z " fill="#000000"/><text fill="#D9B8FF" font-family="Helvetica" font-size="17" lengthAdjust="spacing" textLength="451" x="332" y="553.9398">azure_machine_learning_workspace_model_container</text></g><!--class azure_proxy_resource--><g id="elem_azure_proxy_resource"><rect codeLine="35" fill="#3D176E" height="39.7891" id="azure_proxy_resource" rx="2.5" ry="2.5" style="stroke:#000D19;stroke-width:0.5;" width="224" x="116.5" y="167.79"/><ellipse cx="131.5" cy="187.6845" fill="#ADD1B2" rx="11" ry="11" style="stroke:#181818;stroke-width:1.0;"/><path d="M134.4688,193.3252 Q133.8906,193.622 133.25,193.7627 Q132.6094,193.9189 131.9063,193.9189 Q129.4063,193.9189 128.0781,192.2783 Q126.7656,190.622 126.7656,187.497 Q126.7656,184.372 128.0781,182.7158 Q129.4063,181.0595 131.9063,181.0595 Q132.6094,181.0595 133.25,181.2158 Q133.9063,181.372 134.4688,181.6689 L134.4688,184.3877 Q133.8438,183.8095 133.25,183.5439 Q132.6563,183.2627 132.0313,183.2627 Q130.6875,183.2627 130,184.3408 Q129.3125,185.4033 129.3125,187.497 Q129.3125,189.5908 130,190.6689 Q130.6875,191.7314 132.0313,191.7314 Q132.6563,191.7314 133.25,191.4658 Q133.8438,191.1845 134.4688,190.6064 L134.4688,193.3252 Z " fill="#000000"/><text fill="#D9B8FF" font-family="Helvetica" font-size="17" lengthAdjust="spacing" textLength="182" x="150.5" y="193.5698">azure_proxy_resource</text></g><!--class microsoft_resource--><g id="elem_microsoft_resource"><rect codeLine="38" fill="#3D176E" height="39.7891" id="microsoft_resource" rx="2.5" ry="2.5" style="stroke:#000D19;stroke-width:0.5;" width="200" x="586.5" y="267.58"/><ellipse cx="601.5" cy="287.4745" fill="#ADD1B2" rx="11" ry="11" style="stroke:#181818;stroke-width:1.0;"/><path d="M604.4688,293.1152 Q603.8906,293.412 603.25,293.5527 Q602.6094,293.7089 601.9063,293.7089 Q599.4063,293.7089 598.0781,292.0683 Q596.7656,290.412 596.7656,287.287 Q596.7656,284.162 598.0781,282.5058 Q599.4063,280.8495 601.9063,280.8495 Q602.6094,280.8495 603.25,281.0058 Q603.9063,281.162 604.4688,281.4589 L604.4688,284.1777 Q603.8438,283.5995 603.25,283.3339 Q602.6563,283.0527 602.0313,283.0527 Q600.6875,283.0527 600,284.1308 Q599.3125,285.1933 599.3125,287.287 Q599.3125,289.3808 600,290.4589 Q600.6875,291.5214 602.0313,291.5214 Q602.6563,291.5214 603.25,291.2558 Q603.8438,290.9745 604.4688,290.3964 L604.4688,293.1152 Z " fill="#000000"/><text fill="#D9B8FF" font-family="Helvetica" font-size="17" lengthAdjust="spacing" textLength="158" x="620.5" y="293.3598">microsoft_resource</text></g><!--class resource--><g id="elem_resource"><rect codeLine="41" fill="#3D176E" height="39.7891" id="resource" rx="2.5" ry="2.5" style="stroke:#000D19;stroke-width:0.5;" width="113" x="561" y="7"/><ellipse cx="576" cy="26.8945" fill="#ADD1B2" rx="11" ry="11" style="stroke:#181818;stroke-width:1.0;"/><path d="M578.9688,32.5352 Q578.3906,32.832 577.75,32.9727 Q577.1094,33.1289 576.4063,33.1289 Q573.9063,33.1289 572.5781,31.4883 Q571.2656,29.832 571.2656,26.707 Q571.2656,23.582 572.5781,21.9258 Q573.9063,20.2695 576.4063,20.2695 Q577.1094,20.2695 577.75,20.4258 Q578.4063,20.582 578.9688,20.8789 L578.9688,23.5977 Q578.3438,23.0195 577.75,22.7539 Q577.1563,22.4727 576.5313,22.4727 Q575.1875,22.4727 574.5,23.5508 Q573.8125,24.6133 573.8125,26.707 Q573.8125,28.8008 574.5,29.8789 Q575.1875,30.9414 576.5313,30.9414 Q577.1563,30.9414 577.75,30.6758 Q578.3438,30.3945 578.9688,29.8164 L578.9688,32.5352 Z " fill="#000000"/><text fill="#D9B8FF" font-family="Helvetica" font-size="17" lengthAdjust="spacing" textLength="71" x="595" y="32.7798">resource</text></g><!--reverse link ai_resource to ai_model--><g id="link_ai_resource_ai_model"><path codeLine="44" d="M542.0664,225.9879 C542.6464,263.7579 543.63,329.05 544.21,366.88 " fill="none" id="ai_resource-backto-ai_model" style="stroke:#FFAF37;stroke-width:2.0;"/><polygon fill="none" points="541.79,207.99,536.0671,226.08,548.0657,225.8958,541.79,207.99" style="stroke:#FFAF37;stroke-width:2.0;"/></g><!--reverse link resource to ai_resource--><g id="link_resource_ai_resource"><path codeLine="45" d="M600.5623,63.2877 C585.9623,93.8077 565.33,136.9 550.7,167.47 " fill="none" id="resource-backto-ai_resource" style="stroke:#FFAF37;stroke-width:2.0;"/><polygon fill="none" points="608.33,47.05,595.1497,60.6985,605.9749,65.8769,608.33,47.05" style="stroke:#FFAF37;stroke-width:2.0;"/></g><!--reverse link azure_proxy_resource to azure_machine_learning_model_container_base--><g id="link_azure_proxy_resource_azure_machine_learning_model_container_base"><path codeLine="46" d="M228.5,225.99 C228.5,263.76 228.5,329.05 228.5,366.88 " fill="none" id="azure_proxy_resource-backto-azure_machine_learning_model_container_base" style="stroke:#FFAF37;stroke-width:2.0;"/><polygon fill="none" points="228.5,207.99,222.5,225.99,234.5,225.99,228.5,207.99" style="stroke:#FFAF37;stroke-width:2.0;"/></g><!--reverse link ai_model to azure_machine_learning_workspace_model_container--><g id="link_ai_model_azure_machine_learning_workspace_model_container"><path codeLine="47" d="M544.5,425.42 C544.5,455.94 544.5,497.27 544.5,527.83 " fill="none" id="ai_model-backto-azure_machine_learning_workspace_model_container" style="stroke:#FFAF37;stroke-width:2.0;"/><polygon fill="none" points="544.5,407.42,538.5,425.42,550.5,425.42,544.5,407.42" style="stroke:#FFAF37;stroke-width:2.0;"/></g><!--reverse link azure_machine_learning_model_container_base to azure_machine_learning_workspace_model_container--><g id="link_azure_machine_learning_model_container_base_azure_machine_learning_workspace_model_container"><path codeLine="48" d="M283.0138,415.6615 C343.8738,446.2415 445.64,497.38 506.34,527.88 " fill="none" id="azure_machine_learning_model_container_base-backto-azure_machine_learning_workspace_model_container" style="stroke:#FFAF37;stroke-width:2.0;"/><polygon fill="none" points="266.93,407.58,280.32,421.0228,285.7076,410.3003,266.93,407.58" style="stroke:#FFAF37;stroke-width:2.0;"/></g><!--reverse link microsoft_resource to azure_machine_learning_workspace_model_container--><g id="link_microsoft_resource_azure_machine_learning_workspace_model_container"><path codeLine="49" d="M667.2914,323.6016 C654.4414,347.0916 640.72,372.15 621.5,407.16 C597.75,450.42 569.8,501.15 554.97,528.06 " fill="none" id="microsoft_resource-backto-azure_machine_learning_workspace_model_container" style="stroke:#FFAF37;stroke-width:2.0;"/><polygon fill="none" points="675.93,307.81,662.0275,320.722,672.5552,326.4811,675.93,307.81" style="stroke:#FFAF37;stroke-width:2.0;"/></g><!--reverse link resource to microsoft_resource--><g id="link_resource_microsoft_resource"><path codeLine="50" d="M627.2104,64.3016 C639.9404,112.0116 668.49,218.98 681.33,267.08 " fill="none" id="resource-backto-microsoft_resource" style="stroke:#FFAF37;stroke-width:2.0;"/><polygon fill="none" points="622.57,46.91,621.4132,65.8484,633.0076,62.7548,622.57,46.91" style="stroke:#FFAF37;stroke-width:2.0;"/></g><!--SRC=[dP9DJm8n48Rl_HLDE9E0H8742v8OlH0ZtZUbdRBDRjlDj2k2-jzTvCEoNJxa-iupC- -ycLG9eA0BlwGQz0pG4PSfKp1aceuGxM9iSukq9IMJlNwz-6YDFmjCc0Rw1FaxUCLPdNXB5SyCE4TlWj83uzaSRMd4Phn7PbnL0kC3QfmpvqRUevgL7W8pOZWRI5adwqDRFT7jtq64MHI0MwJJwOZki8wSNNNoxZqnLIkWtJ2qYVKGsOnM_58dNQw9m6HqwAv-rECB4qAPERqDjDUD9pI01_eqPS8krhHakGlNE0y8rYyB64TNmN0WPByHVZu64xwEZZALQ2iWfv-4VFzf2CwMoE50NfK8YMOyLGQI71YQokYcFU5L0gpICPanTqdRmc9MlI67-e2ujq3xiMoqf1L7wwpqZTL3BRpg_glTRkzl9x6-KqYZWorsUHva7_F9rgEPaFzaV-MAXYold5JhZmUJ7m00]--></g></svg>

<svg xmlns="http://www.w3.org/2000/svg" width="798" height="573" viewBox="0 0 798 573"><rect width="118" height="39.789" x="485.5" y="367.37" fill="#3D176E" rx="2.5" ry="2.5" style="stroke:#000d19;stroke-width:.5"/><circle cx="500.5" cy="387.264" r="11" fill="#ADD1B2" style="stroke:#181818;stroke-width:1"/><path d="M503.469 392.905q-.578.297-1.219.438-.64.156-1.344.156-2.5 0-3.828-1.64-1.312-1.657-1.312-4.782t1.312-4.781q1.328-1.656 3.828-1.656.703 0 1.344.156.656.156 1.219.453v2.719q-.625-.579-1.219-.844-.594-.281-1.219-.281-1.344 0-2.031 1.078-.687 1.062-.687 3.156t.687 3.172q.688 1.062 2.031 1.062.625 0 1.219-.265.594-.281 1.219-.86z"/><text x="519.5" y="393.15" fill="#D9B8FF" font-family="Helvetica" font-size="17" textLength="76">ai_model</text><rect width="137" height="39.789" x="473" y="167.79" fill="#3D176E" rx="2.5" ry="2.5" style="stroke:#000d19;stroke-width:.5"/><circle cx="488" cy="187.685" r="11" fill="#ADD1B2" style="stroke:#181818;stroke-width:1"/><path d="M490.969 193.325q-.578.297-1.219.438-.64.156-1.344.156-2.5 0-3.828-1.64-1.312-1.657-1.312-4.782t1.312-4.781q1.328-1.656 3.828-1.656.703 0 1.344.156.656.156 1.219.453v2.719q-.625-.578-1.219-.844-.594-.281-1.219-.281-1.344 0-2.031 1.078-.687 1.062-.687 3.156t.687 3.172q.688 1.062 2.031 1.062.625 0 1.219-.265.594-.281 1.219-.86z"/><text x="507" y="193.57" fill="#D9B8FF" font-family="Helvetica" font-size="17" textLength="95">ai_resource</text><rect width="443" height="39.789" x="7" y="367.37" fill="#3D176E" rx="2.5" ry="2.5" style="stroke:#000d19;stroke-width:.5"/><circle cx="22" cy="387.264" r="11" fill="#ADD1B2" style="stroke:#181818;stroke-width:1"/><path d="M24.969 392.905q-.578.297-1.219.438-.64.156-1.344.156-2.5 0-3.828-1.64-1.312-1.657-1.312-4.782t1.312-4.781q1.328-1.656 3.828-1.656.703 0 1.344.156.656.156 1.219.453v2.719q-.625-.579-1.219-.844-.594-.281-1.219-.281-1.343 0-2.031 1.078-.687 1.062-.687 3.156t.687 3.172q.688 1.062 2.031 1.062.625 0 1.219-.265.594-.281 1.219-.86z"/><text x="41" y="393.15" fill="#D9B8FF" font-family="Helvetica" font-size="17" textLength="401">azure_machine_learning_model_container_base</text><rect width="493" height="39.789" x="298" y="528.16" fill="#3D176E" rx="2.5" ry="2.5" style="stroke:#000d19;stroke-width:.5"/><circle cx="313" cy="548.054" r="11" fill="#ADD1B2" style="stroke:#181818;stroke-width:1"/><path d="M315.969 553.695q-.578.297-1.219.438-.64.156-1.344.156-2.5 0-3.828-1.64-1.312-1.657-1.312-4.782t1.312-4.781q1.328-1.657 3.828-1.657.703 0 1.344.157.656.156 1.219.453v2.719q-.625-.579-1.219-.844-.594-.281-1.219-.281-1.344 0-2.031 1.078-.687 1.062-.687 3.156t.687 3.172q.688 1.062 2.031 1.062.625 0 1.219-.265.594-.282 1.219-.86z"/><text x="332" y="553.94" fill="#D9B8FF" font-family="Helvetica" font-size="17" textLength="451">azure_machine_learning_workspace_model_container</text><rect width="224" height="39.789" x="116.5" y="167.79" fill="#3D176E" rx="2.5" ry="2.5" style="stroke:#000d19;stroke-width:.5"/><circle cx="131.5" cy="187.685" r="11" fill="#ADD1B2" style="stroke:#181818;stroke-width:1"/><path d="M134.469 193.325q-.578.297-1.219.438-.64.156-1.344.156-2.5 0-3.828-1.64-1.312-1.657-1.312-4.782t1.312-4.781q1.328-1.656 3.828-1.656.703 0 1.344.156.656.156 1.219.453v2.719q-.625-.578-1.219-.844-.594-.281-1.219-.281-1.344 0-2.031 1.078-.687 1.062-.687 3.156t.687 3.172q.688 1.062 2.031 1.062.625 0 1.219-.265.594-.281 1.219-.86z"/><text x="150.5" y="193.57" fill="#D9B8FF" font-family="Helvetica" font-size="17" textLength="182">azure_proxy_resource</text><rect width="200" height="39.789" x="586.5" y="267.58" fill="#3D176E" rx="2.5" ry="2.5" style="stroke:#000d19;stroke-width:.5"/><circle cx="601.5" cy="287.474" r="11" fill="#ADD1B2" style="stroke:#181818;stroke-width:1"/><path d="M604.469 293.115q-.578.297-1.219.438-.64.156-1.344.156-2.5 0-3.828-1.64-1.312-1.657-1.312-4.782t1.312-4.781q1.328-1.656 3.828-1.656.703 0 1.344.156.656.156 1.219.453v2.719q-.625-.579-1.219-.844-.594-.281-1.219-.281-1.343 0-2.031 1.078-.687 1.062-.687 3.156t.687 3.172q.688 1.062 2.031 1.062.625 0 1.219-.265.594-.281 1.219-.86z"/><text x="620.5" y="293.36" fill="#D9B8FF" font-family="Helvetica" font-size="17" textLength="158">microsoft_resource</text><rect width="113" height="39.789" x="561" y="7" fill="#3D176E" rx="2.5" ry="2.5" style="stroke:#000d19;stroke-width:.5"/><circle cx="576" cy="26.895" r="11" fill="#ADD1B2" style="stroke:#181818;stroke-width:1"/><path d="M578.969 32.535q-.578.297-1.219.438-.64.156-1.344.156-2.5 0-3.828-1.64-1.312-1.657-1.312-4.782t1.312-4.781q1.328-1.656 3.828-1.656.703 0 1.344.156.656.156 1.219.453v2.719q-.625-.578-1.219-.844-.594-.281-1.219-.281-1.343 0-2.031 1.078-.687 1.062-.687 3.156t.687 3.172q.688 1.062 2.031 1.062.625 0 1.219-.265.594-.281 1.219-.86z"/><text x="595" y="32.78" fill="#D9B8FF" font-family="Helvetica" font-size="17" textLength="71">resource</text><g fill="none"><path d="M542.066 225.988c.58 37.77 1.564 103.062 2.144 140.892" style="stroke:#ffaf37;stroke-width:2"/><path d="m541.79 207.99-5.723 18.09 11.999-.184z" style="stroke:#ffaf37;stroke-width:2"/></g><path fill="none" d="M600.562 63.288c-14.6 30.52-35.232 73.612-49.862 104.182m57.63-120.42-13.18 13.649 10.825 5.178zM228.5 225.99v140.89m0-158.89-6 18h12zm316 217.43v102.41m0-120.41-6 18h12zm-261.486 8.242c60.86 30.58 162.626 81.718 223.326 112.218m-239.41-120.3 13.39 13.443 5.388-10.723zm400.361-83.978A60053 60053 0 0 1 621.5 407.16c-23.75 43.26-51.7 93.99-66.53 120.9m120.96-220.25-13.902 12.912 10.527 5.76zM627.21 64.302c12.73 47.71 41.28 154.678 54.12 202.778M622.57 46.91l-1.157 18.938 11.595-3.093z" style="stroke:#ffaf37;stroke-width:2"/></svg>
